X:15
T:Rigodon du temps pass
R:Rigodon
C:Trad.
A:Gapenais - Hautes-Alpes - France
D:Le violon traditionnel en France
G:Accordion
%%MIDI program 21 %Accordian
M:2/
L:1/8
Q:160
K:G
|:[g/G,/]f/[g/G,/]e/[dG,][B/G,/]c/|[d/G,/]c/[B/G,/]A/[BG,][GG,]|[g/G,/]f/[g/G,/]e/[dG,][B/G,/]c/|[d/G,/]c/[B/G,/]A/[GG,]G,:|:[A/D,/]G/[A/D,/]B/[cD,][B/D,/]c/| \
[d/G,/]c/[B/G,/]A/[BG,][GG,]|[A/D,/]G/[A/D,/]B/[cD,][B/D,/]c/|[d/G,/]c/[B/G,/]A/[GG,]G,:| \
K:C
Z:Created with TablEdit http://www.tabledit.com/
